!!!OTL: Dubula
!!!XEN: Shoot
!!!CNT: African -- sub-Saharan -- Xhosa
**kern
*k[f#]
*M4/4
*MM160
=1
8g
8g
4g
4g
4a
=2
(8b
4a)
8g
2r
=3
8a
8a
4a
4a
4b
=4
(8cc
4b)
8a
2r
=5
8f#
8f#
4f#
4f#
4g
=6
(8a
4g)
8a
2r
=7
8g
8g
8g
8g
8g
8g
8d
8d
=8
4g
4d
4b
4g
!! Repeat from the beginning.
=9
8g
8g
4g
4g
4a
=10
(8b
4a)
8g
2r
=11
8a
8a
4a
4a
4b
=12
(8cc
4b)
8a
2r
=13
8f#
8f#
4f#
4f#
4g
=14
(8a
4g)
8a
2r
=15
8g
8g
8g
8g
8g
8g
8d
8d
=16
4g
4d
4b
4g
!! Continuing
=17
4r
8r
8g
8g
8g
8a
=18
(8b
4a)
8g
2r
=19
4r
8r
8a
8a
8a
8g
8g
=20
(8a
4b)
[8cc
4.cc]
8r
=21
4r
8r
8F#
8F#
8f#
8f#
8g
=22
(8a
4g)
8a
2r
=23
2g
2g
=24
(8e
4g)
[8g
4.g]
8r
!! Repeat
=25
4r
8r
8g
8g
8g
8a
=26
(8b
4a)
8g
2r
=27
4r
8r
8a
8a
8a
8g
8g
=28
(8a
4b)
[8cc
4.cc]
8r
=29
4r
8r
8F#
8F#
8f#
8f#
8g
=30
(8a
4g)
8a
2r
=31
2g
2g
=32
(8e
4g)
[8g
4.g]
8r
!! Continuing.
=33
4r
8g
4g
8g
8g
8g
=34
8g
8g
8d
8d
2g
=35
4r
8g
4g
8g
8g
8g
=36
8g
8g
8e
8e
2g
=37
4r
8f#
4f#
8f#
8f#
8f#
=38
8f#
8f#
8d
8d
2f#
=39
2g
2g
=40
(8e
4g)
[8g
4.g]
8r
!! Repeat.
=41
4r
8g
4g
8g
8g
8g
=42
8g
8g
8d
8d
2g
=43
4r
8g
4g
8g
8g
8g
=44
8g
8g
8e
8e
2g
=45
4r
8f#
4f#
8f#
8f#
8f#
=46
8f#
8f#
8d
8d
2f#
=47
2g
2g
=48
(8e
4g)
[8g
4.g]
8r
==
*-
!!!OPR: Miriam Makeba, "The World of African Song"
!!!PPP: Chicago
!!!PPR: Quadrangle Press (12 East Delaware Place)
!!!PDT: 1971///
!!!PPG: 55
!!!ENC: David Huron
!!!EMD: 1998/9/29/ Paul von Hippel updated this file in the following ways:
!!!EMD:  (1) changed the representation of slurs from curly braces to parentheses 
!!!EMD:  (2) changed freeform comments into reference records and tandem interpretations
!!!EMD:  (3) changed final barline from triple (===) to double (==)
!!!EMD:  (4) added key signature from printed source
!!!EEV: Version 2.0
